X: 21532
P: Original key G.
M: 2/4
L: 1/16
K: D
!segno![|!f!\
dfba aAdf | fFAd dDFA | AGFG EFGA | BA^GA F2z2 |\
dfba aAdf | fFAd dDFA | AGFG g^dec | d2z2 d2z2 H|]
d2f2F2G2 | (B4 A2) zA | ^G2A2B2F2 | (A4 G2) zG |\
^g2 =g4 f2- | f2 e4 d2 | d2A2f3e | d2z2 d2z2 |
e2ce aaaa | ^g2ff fff^e | =e2^d2=d2B2 | c2A^G ABcd |\
e2ce aaa^g | f2df d'd'd'd' | d'b^ge dB^GE | A2z2 a2z2 !segno!|]


